X:210
T:Miss Wrights Fancy. JGi.095
O:Tealby,Lincolnshire
M:C|
L:1/8
Q:1/4=130
S:Joshua Gibbons MS,1823,Tealby,Lincs.
R:reel
Z:VMP/R.Greig, 2009
K:G
d|B2GB dedc|B2GB cAAd|B2GB dedc|BdAc BGG:|
|:f|g2dB g2dB|ggdB cAAf|g2dBg2dB|cAcc BGG||

